icons/folder-flow.svg

<svg xmlns="http://www.w3.org/2000/svg" viewBox="0 0 32 32">
  <path d="M13.84376,7.53645l-1.28749-1.0729A2,2,0,0,0,11.27591,6H4A2,2,0,0,0,2,8V24a2,2,0,0,0,2,2H28a2,2,0,0,0,2-2V10a2,2,0,0,0-2-2H15.12412A2,2,0,0,1,13.84376,7.53645Z" style="fill: #546e7a"/>
  <path d="M12,10l6.70979,6H13.9854l4.67169,4H11.98053L20,28.02542V12h3.54845L25.132,14H22v6h1.97926l1.97925,2h-3.9832L22,22.02467V28H32l-4-3.03264V23.746l.65659.65458L28,18H26V15.99031l4,1.99676v-5.9903l-6-.99839L21.92319,10Z" style="fill: #fbc02d;fill-opacity: 0.976000010967255;fill-rule: evenodd"/>
</svg>

<svg xmlns="http://www.w3.org/2000/svg" viewBox="0 0 32 32"><path fill="#546e7a" d="m13.844 7.536-1.288-1.072A2 2 0 0 0 11.276 6H4a2 2 0 0 0-2 2v16a2 2 0 0 0 2 2h24a2 2 0 0 0 2-2V10a2 2 0 0 0-2-2H15.124a2 2 0 0 1-1.28-.464Z"/><path fill="#fbc02d" fill-opacity=".976" fill-rule="evenodd" d="m12 10 6.71 6h-4.725l4.672 4h-6.676L20 28.025V12h3.548l1.584 2H22v6h1.98l1.979 2h-3.984l.025.025V28h10l-4-3.033v-1.221l.657.655L28 18h-2v-2.01l4 1.997v-5.99l-6-.999L21.923 10Z"/></svg>
